svgs/neobank.svg

<svg width="192" height="192" viewBox="0 0 192 192" fill="none" xmlns="http://www.w3.org/2000/svg">
<path d="M161 63.9077V28.0183C161 22.4505 154.087 19.8794 150.456 24.0966L137.795 38.798C136.655 40.1216 134.996 40.8826 133.251 40.8826H58.7493C57.0037 40.8826 55.3446 40.1216 54.2049 38.798L41.5445 24.0966C37.9128 19.8794 31 22.4505 31 28.0183V152" stroke="black" stroke-width="12" stroke-linecap="round" stroke-linejoin="round"/>
<path d="M56 68C72 68 84 72 84 72" stroke="black" stroke-width="10" stroke-linecap="round" stroke-linejoin="round"/>
<path d="M108 72C108 72 117.802 68.7327 131.5 68.104" stroke="black" stroke-width="10" stroke-linecap="round" stroke-linejoin="round"/>
<path d="M170 82L170 170" stroke="black" stroke-width="12" stroke-linecap="round" stroke-linejoin="round"/>
<path d="M130 82L130 136" stroke="black" stroke-width="12" stroke-linecap="round" stroke-linejoin="round"/>
<circle cx="70" cy="137" r="22" stroke="black" stroke-width="10" stroke-linecap="round" stroke-linejoin="round"/>
<path d="M62 170C62 164.696 59.8929 159.609 56.1421 155.858C52.3914 152.107 47.3043 150 42 150C36.6957 150 31.6086 152.107 27.8579 155.858C24.1071 159.609 22 164.696 22 170" stroke="black" stroke-width="12" stroke-linecap="round" stroke-linejoin="round"/>
<path d="M82 91C82 93.9174 83.475 96.7153 86.1005 98.7782C88.726 100.841 92.287 102 96 102C99.713 102 103.274 100.841 105.899 98.7782C108.525 96.7153 110 93.9174 110 91" stroke="black" stroke-width="10" stroke-linecap="round" stroke-linejoin="round"/>
<path d="M170 82C170 76.6957 167.893 71.6086 164.142 67.8579C160.391 64.1071 155.304 62 150 62C144.696 62 139.609 64.1071 135.858 67.8579C132.107 71.6086 130 76.6957 130 82" stroke="black" stroke-width="12" stroke-linecap="round" stroke-linejoin="round"/>
</svg>

<svg xmlns="http://www.w3.org/2000/svg" width="192" height="192" fill="none" viewBox="0 0 192 192"><path stroke="#000" stroke-linecap="round" stroke-linejoin="round" stroke-width="12" d="M161 63.908v-35.89c0-5.567-6.913-8.139-10.544-3.921l-12.661 14.701a6 6 0 0 1-4.544 2.085H58.749a6 6 0 0 1-4.544-2.085l-12.66-14.701C37.913 19.879 31 22.45 31 28.018V152"/><path stroke="#000" stroke-linecap="round" stroke-linejoin="round" stroke-width="10" d="M56 68c16 0 28 4 28 4m24 0s9.802-3.267 23.5-3.896"/><path stroke="#000" stroke-linecap="round" stroke-linejoin="round" stroke-width="12" d="M170 82v88m-40-88v54"/><circle cx="70" cy="137" r="22" stroke="#000" stroke-linecap="round" stroke-linejoin="round" stroke-width="10"/><path stroke="#000" stroke-linecap="round" stroke-linejoin="round" stroke-width="12" d="M62 170a20 20 0 0 0-40 0"/><path stroke="#000" stroke-linecap="round" stroke-linejoin="round" stroke-width="10" d="M82 91c0 2.917 1.475 5.715 4.1 7.778C88.727 100.841 92.288 102 96 102s7.274-1.159 9.899-3.222C108.525 96.715 110 93.918 110 91"/><path stroke="#000" stroke-linecap="round" stroke-linejoin="round" stroke-width="12" d="M170 82a19.999 19.999 0 1 0-40 0"/></svg>
